X: 135
T: Jin xiu hebao
L: 1/16
M: 2/4
K: Eb
B2 c2 e2 e e [I:setbarnb 1]| 
e cB4c2 | 
e2 e e c e c B | 
c BG4F2 | 
G FG6 | 
B2 c2 e2 e e | 
e cB4c2 | 
e2 e e c e c B | 
c BG4F2 | 
G FG6 | 
F G C2E4 | 
G2 e2 c2 B2 | 
G B G2 F2 E2 | 
C2 B,2C4 | 
E2E4F2 | 
G2 e2 c2 B B | 
c BE4F2 | 
G2 G2 B3 G | 
F G F2 G F E2 | 
F EC4B,2 | 
C8 |]

@@@ Tune index: 9009
